img/footer/logo.svg

<svg width="180" height="40" viewBox="0 0 180 40" fill="none" xmlns="http://www.w3.org/2000/svg">
<path fill-rule="evenodd" clip-rule="evenodd" d="M43.0836 29.4351C43.1248 29.5649 43.166 29.6515 43.2483 29.6947C43.2895 29.738 43.3307 29.7813 43.3719 29.7813C43.4131 29.7813 43.4542 29.738 43.4954 29.6947C43.5366 29.6515 43.6189 29.5649 43.6601 29.4351L47.2426 18.4847H52.5545L47.2426 32.2051C47.1191 32.5514 46.9544 32.8976 46.7485 33.2006C46.5426 33.5036 46.2955 33.8066 46.0073 34.023C45.719 34.2827 45.3484 34.4558 44.9366 34.5856C44.5249 34.7155 43.9895 34.802 43.3719 34.802C42.7542 34.802 42.2189 34.7155 41.8071 34.5856C41.3953 34.4558 41.0247 34.2394 40.7365 34.023C40.4482 33.8066 40.2012 33.5036 39.9953 33.2006C39.7894 32.8976 39.6247 32.5514 39.5012 32.2051L34.1892 18.4847H39.5012L43.0836 29.4351ZM53.0075 34.6289V18.4847H57.9489V34.6289H53.0075ZM68.6551 25.9292C68.9433 25.9292 69.2728 25.9292 69.561 25.8859C69.8493 25.8426 70.0963 25.7561 70.3022 25.4964C70.5493 25.1934 70.714 24.7173 70.714 24.1113C70.714 23.8949 70.6728 23.6785 70.6316 23.4621C70.5905 23.2457 70.4669 23.0293 70.261 22.8562C70.0551 22.683 69.8081 22.5532 69.561 22.5532C69.2728 22.5099 69.0257 22.5099 68.7375 22.5099H65.9785C65.7727 22.5099 65.6079 22.5532 65.5256 22.5965C65.402 22.683 65.3197 22.7263 65.2785 22.8562C65.2373 22.9427 65.1962 23.0293 65.155 23.1591C65.155 23.2457 65.1138 23.3755 65.1138 23.4621V25.9725H68.6551V25.9292ZM60.1313 34.6289V21.5144C60.1313 21.1681 60.1725 20.8219 60.2548 20.3891C60.3372 19.9562 60.5019 19.61 60.749 19.307C60.9137 19.0906 61.1607 18.9175 61.4901 18.7443C61.8196 18.5712 62.2725 18.4847 62.7667 18.4847H71.2493C71.867 18.4847 72.4435 18.5712 73.02 18.7011C73.5553 18.8309 74.0494 19.1339 74.5024 19.6533C74.873 20.0428 75.1612 20.6055 75.3259 21.298C75.5318 21.9905 75.6142 22.8994 75.6142 24.0681C75.6142 24.3277 75.6142 24.7173 75.573 25.1501C75.5318 25.5829 75.4906 26.059 75.4083 26.5784C75.3259 27.0545 75.1612 27.5306 74.9965 28.0067C74.8318 28.4828 74.5435 28.8291 74.2553 29.1321C73.8847 29.4351 73.4729 29.6947 72.9376 29.8246C72.4435 29.9544 71.9493 30.041 71.5376 30.041H65.0726V34.7155H60.1313V34.6289ZM81.9967 30.6037H90.5206C90.8912 30.6037 91.1382 30.5604 91.2206 30.4305C91.3029 30.344 91.3853 30.2141 91.3853 30.0843C91.3853 29.8246 91.3029 29.6515 91.0971 29.5216C90.8912 29.435 90.6853 29.3485 90.4382 29.2619L84.5086 27.5306C84.0556 27.4008 83.685 27.2277 83.3968 26.968C83.1085 26.7083 82.9027 26.4919 82.7379 26.2754C82.3673 25.7561 82.1615 25.1934 82.0379 24.5442C81.9556 23.8949 81.9144 23.289 81.9144 22.683C81.9144 22.1636 81.9556 21.6443 82.0379 21.0383C82.1203 20.4756 82.4085 19.913 82.8615 19.4369C83.1085 19.1772 83.438 18.9608 83.8497 18.7443C84.2615 18.5279 84.7968 18.4414 85.4557 18.4414H95.5854V22.4666H87.7616C87.4734 22.4666 87.2675 22.4666 87.1852 22.5099C87.1028 22.5099 87.0204 22.5532 86.9793 22.5965C86.8146 22.683 86.7322 22.8562 86.7322 23.0293C86.7322 23.289 86.8557 23.4621 87.144 23.592C87.4322 23.7218 87.7205 23.8084 88.0087 23.8949L93.1971 25.3665C93.5265 25.4531 93.8971 25.5829 94.3089 25.7993C94.7207 25.9725 95.0501 26.2322 95.3384 26.5351C95.5854 26.7948 95.7502 27.0545 95.9149 27.3575C96.0796 27.6605 96.1619 28.0067 96.2443 28.3097C96.3266 28.656 96.3678 28.9589 96.3678 29.3052C96.409 29.6082 96.409 29.9112 96.409 30.2141C96.409 30.6902 96.3678 31.2096 96.2855 31.8156C96.2031 32.3782 95.9972 32.9409 95.6678 33.417C95.4619 33.72 95.2148 33.9797 94.9678 34.1528C94.7207 34.3259 94.4736 34.4558 94.1854 34.5424C93.8972 34.6289 93.6501 34.6722 93.3618 34.6722C93.0736 34.6722 92.8265 34.7155 92.5795 34.7155H82.0379V30.6037H81.9967ZM103.739 27.6172H106.909L105.509 23.5487C105.468 23.5054 105.427 23.4188 105.427 23.3323C105.386 23.2457 105.345 23.2024 105.345 23.2024C105.303 23.2024 105.262 23.2457 105.262 23.3323C105.221 23.4188 105.18 23.5054 105.18 23.5487L103.739 27.6172ZM101.803 20.2592L96.1208 34.6289H101.35L102.545 31.2962H108.062L109.257 34.6289H114.486L108.804 20.2592C108.639 19.8264 108.433 19.4801 108.145 19.2205C107.898 18.9608 107.609 18.7443 107.321 18.6145C107.033 18.4847 106.703 18.3981 106.374 18.3548C106.045 18.3115 105.674 18.3115 105.303 18.3115C104.686 18.3115 104.192 18.3548 103.821 18.4414C103.45 18.5279 103.121 18.6578 102.833 18.8309C102.586 19.004 102.339 19.2205 102.215 19.4369C102.092 19.6966 101.927 19.9562 101.803 20.2592ZM131.698 31.9021C131.698 32.032 131.657 32.2917 131.616 32.5947C131.575 32.8976 131.451 33.2439 131.204 33.5469C130.998 33.8498 130.669 34.1528 130.216 34.4125C129.763 34.6722 129.145 34.802 128.322 34.802C128.034 34.802 127.745 34.802 127.457 34.7588C127.169 34.7155 126.881 34.6722 126.592 34.5424C126.304 34.4558 126.016 34.2827 125.769 34.0662C125.481 33.8498 125.234 33.5469 125.028 33.2006L119.469 24.977C119.427 24.8904 119.345 24.8039 119.263 24.7173C119.18 24.6307 119.098 24.5874 119.057 24.5874C119.016 24.5874 118.974 24.5874 118.892 24.6307C118.81 24.674 118.769 24.8039 118.769 25.0203V34.5856H114.939V21.1681C114.939 20.6488 115.021 20.2159 115.227 19.8264C115.433 19.4801 115.68 19.1772 116.01 18.9608C116.339 18.7443 116.71 18.5712 117.121 18.4847C117.533 18.3981 117.945 18.3548 118.398 18.3548C118.604 18.3548 118.851 18.3548 119.139 18.3981C119.427 18.4414 119.716 18.4847 120.004 18.5712C120.292 18.6578 120.58 18.8309 120.869 19.004C121.157 19.2205 121.404 19.4801 121.651 19.8264L127.21 28.0933C127.251 28.1799 127.334 28.2664 127.416 28.353C127.498 28.4396 127.539 28.4828 127.663 28.4828C127.787 28.4828 127.869 28.4396 127.869 28.353C127.91 28.2664 127.91 28.1799 127.91 28.0933V18.4847H131.74V31.9021H131.698ZM138.04 34.6289V22.5099H132.563V18.4847H148.458V22.5099H142.981V34.6289H138.04ZM151.917 34.6289C151.587 34.6289 151.258 34.5856 150.97 34.5424C150.64 34.4991 150.352 34.3259 150.064 34.0662C149.693 33.7633 149.528 33.4603 149.446 33.114C149.405 32.7678 149.364 32.4215 149.364 32.032V20.9517C149.364 20.6488 149.405 20.3458 149.487 19.9995C149.57 19.6966 149.734 19.3936 150.023 19.0906C150.311 18.8309 150.64 18.6578 150.97 18.5712C151.299 18.4847 151.629 18.4414 151.876 18.4414H162.911V22.3368H155.335C155.17 22.3368 155.046 22.3368 154.923 22.3801C154.799 22.4233 154.676 22.4666 154.593 22.5532C154.47 22.6397 154.387 22.8129 154.387 22.9427C154.346 23.1158 154.346 23.2457 154.346 23.3323V24.5442H162.705V28.05H154.346V29.7813C154.346 29.9544 154.387 30.0843 154.429 30.1708C154.47 30.2574 154.511 30.344 154.593 30.3873C154.717 30.5171 154.84 30.5604 155.046 30.6037C155.211 30.6037 155.376 30.6037 155.54 30.6037H163.035V34.5424H151.917V34.6289ZM180 34.6289H175.059V28.2231H169.5V34.6289H164.558V18.4847H169.5V24.1979H175.059V18.4847H180V34.6289Z" fill="white"/>
<path fill-rule="evenodd" clip-rule="evenodd" d="M15.6226 0.273438C13.2834 7.58105 0 19.8017 0 25.8707C0 33.3022 6.97587 39.2886 15.6226 39.3299C24.2693 39.2886 31.2452 33.3022 31.2452 25.8707C31.2452 19.8017 17.9618 7.58105 15.6226 0.273438ZM7.89484 26.1597C8.18724 25.912 8.3961 25.5404 8.3961 25.0863C8.3961 24.3431 7.8113 23.7238 7.10118 23.7238C6.39106 23.7238 5.80626 24.3431 5.80626 25.0863C5.80626 25.8294 6.39106 26.4487 7.10118 26.4487C7.2265 26.4487 7.39358 26.4074 7.5189 26.3661L10.6518 34.1692C7.10118 32.7655 4.21894 29.8755 4.21894 25.8707C4.21894 23.7651 10.0252 16.375 11.4037 14.5997C12.6986 12.9482 14.2024 11.0078 15.6226 8.94348C17.0428 10.9665 18.5466 12.9069 19.8415 14.5997C21.22 16.4162 27.0263 23.7651 27.0263 25.8707C27.0263 29.8342 24.1858 32.7242 20.677 34.1279L23.8098 26.4487C23.8934 26.49 24.0187 26.49 24.144 26.49C24.8541 26.49 25.4389 25.8707 25.4389 25.1276C25.4389 24.3844 24.8541 23.7651 24.144 23.7651C23.4339 23.7651 22.8491 24.3844 22.8491 25.1276C22.8491 25.5817 23.058 25.9946 23.4339 26.2423L17.7947 31.8985L15.8732 24.2193C16.3745 24.0541 16.7504 23.5174 16.7504 22.9394C16.7504 22.1963 16.1656 21.577 15.4555 21.577C14.7454 21.577 14.1606 22.1963 14.1606 22.9394C14.1606 23.5174 14.5365 24.0128 15.0378 24.2193L13.1581 31.3617L7.89484 26.1597Z" fill="white"/>
</svg>

<svg width="180" height="40" fill="none" xmlns="http://www.w3.org/2000/svg"><path fill-rule="evenodd" clip-rule="evenodd" d="M43.084 29.435c.04.13.082.216.164.26.041.043.083.086.124.086.041 0 .082-.043.123-.086a.667.667 0 0 0 .165-.26l3.583-10.95h5.311l-5.311 13.72a4.442 4.442 0 0 1-.495.996c-.205.303-.453.606-.74.822-.289.26-.66.433-1.071.563a5.29 5.29 0 0 1-1.565.216 5.29 5.29 0 0 1-1.565-.216 3.653 3.653 0 0 1-1.07-.563c-.289-.216-.536-.52-.742-.822a4.442 4.442 0 0 1-.494-.996l-5.312-13.72h5.312l3.583 10.95zm9.923 5.194V18.485h4.942v16.144h-4.941zm15.648-8.7c.288 0 .618 0 .906-.043.288-.043.535-.13.741-.39.247-.303.412-.779.412-1.385 0-.216-.041-.433-.082-.649a1.058 1.058 0 0 0-.371-.606c-.206-.173-.453-.303-.7-.303-.288-.043-.535-.043-.824-.043H65.98c-.206 0-.371.043-.453.086-.124.087-.206.13-.248.26a2.166 2.166 0 0 0-.123.303c0 .087-.041.216-.041.303v2.51h3.541v-.043zm-8.524 8.7V21.514c0-.346.041-.692.124-1.125a2.35 2.35 0 0 1 .494-1.082c.165-.216.412-.39.741-.563.33-.173.782-.26 1.277-.26h8.482c.618 0 1.195.087 1.771.217.535.13 1.03.433 1.482.952.371.39.66.953.824 1.645.206.693.288 1.601.288 2.77 0 .26 0 .65-.041 1.082-.041.433-.082.909-.165 1.428-.082.477-.247.953-.412 1.429-.164.476-.453.822-.74 1.125-.371.303-.783.563-1.318.693-.495.13-.989.216-1.4.216h-6.465v4.674H60.13v-.086zm21.866-4.025h8.524c.37 0 .617-.044.7-.174.082-.086.164-.216.164-.346 0-.26-.082-.433-.288-.562a11.052 11.052 0 0 0-.659-.26l-5.93-1.731c-.452-.13-.823-.303-1.111-.563a5.071 5.071 0 0 1-.66-.693c-.37-.519-.575-1.082-.7-1.73a14.643 14.643 0 0 1-.123-1.862c0-.52.042-1.039.124-1.645.082-.562.37-1.125.824-1.601.247-.26.576-.476.988-.693.412-.216.947-.303 1.606-.303h10.13v4.026h-7.824c-.289 0-.495 0-.577.043a.306.306 0 0 0-.206.086.48.48 0 0 0-.247.433c0 .26.124.433.412.563.288.13.576.216.865.303l5.188 1.471c.33.087.7.217 1.112.433.412.174.741.433 1.03.736.246.26.411.52.576.823.165.302.247.649.33.952.082.346.123.649.123.995.041.303.041.606.041.91 0 .475-.041.995-.124 1.6a3.803 3.803 0 0 1-.617 1.602 2.897 2.897 0 0 1-.7.736 2.677 2.677 0 0 1-.783.39c-.288.086-.535.13-.823.13-.288 0-.535.042-.782.042H82.037v-4.111h-.041zm21.742-2.987h3.17l-1.4-4.068a.34.34 0 0 1-.082-.217.537.537 0 0 0-.082-.13c-.042 0-.083.044-.083.13a.755.755 0 0 0-.082.217l-1.441 4.068zm-1.936-7.358-5.682 14.37h5.229l1.195-3.333h5.517l1.195 3.333h5.229l-5.682-14.37c-.165-.433-.371-.779-.659-1.038a2.726 2.726 0 0 0-.824-.607 3.427 3.427 0 0 0-.947-.26c-.329-.043-.7-.043-1.071-.043-.617 0-1.111.044-1.482.13-.371.087-.7.217-.988.39-.247.173-.494.39-.618.606-.123.26-.288.52-.412.822zm29.895 11.643c0 .13-.041.39-.082.693-.041.303-.165.649-.412.952-.206.303-.535.606-.988.866-.453.26-1.071.389-1.894.389-.288 0-.577 0-.865-.043-.288-.044-.576-.087-.865-.217a2.29 2.29 0 0 1-.823-.476c-.288-.216-.535-.52-.741-.865l-5.559-8.224c-.042-.087-.124-.173-.206-.26-.083-.086-.165-.13-.206-.13-.041 0-.083 0-.165.044-.082.043-.123.173-.123.39v9.565h-3.83V21.168c0-.52.082-.952.288-1.342.206-.346.453-.649.783-.865.329-.217.7-.39 1.111-.476.412-.087.824-.13 1.277-.13.206 0 .453 0 .741.043s.577.087.865.173c.288.087.576.26.865.433.288.216.535.476.782.822l5.559 8.267c.041.087.124.173.206.26.082.087.123.13.247.13s.206-.043.206-.13c.041-.087.041-.173.041-.26v-9.608h3.83v13.417h-.042zm6.342 2.727v-12.12h-5.477v-4.024h15.895v4.025h-5.477v12.119h-4.941zm13.877 0c-.33 0-.659-.043-.947-.087-.33-.043-.618-.216-.906-.476-.371-.303-.536-.606-.618-.952a8.89 8.89 0 0 1-.082-1.082v-11.08c0-.303.041-.606.123-.953.083-.302.247-.605.536-.908.288-.26.617-.433.947-.52.329-.086.659-.13.906-.13h11.035v3.896h-7.576c-.165 0-.289 0-.412.043-.124.043-.247.087-.33.173a.525.525 0 0 0-.206.39c-.041.173-.041.303-.041.39v1.211h8.359v3.506h-8.359v1.731c0 .173.041.303.083.39.041.086.082.173.164.216.124.13.247.173.453.217h7.989v3.938h-11.118v.087zm28.083 0h-4.941v-6.406H169.5v6.406h-4.942V18.485h4.942v5.713h5.559v-5.713H180v16.144zM15.623.273C13.283 7.581 0 19.802 0 25.871c0 7.431 6.976 13.418 15.623 13.459 8.646-.041 15.622-6.028 15.622-13.46 0-6.068-13.283-18.289-15.622-25.597zM7.895 26.16c.292-.248.501-.62.501-1.074 0-.743-.585-1.362-1.295-1.362s-1.295.62-1.295 1.362c0 .743.585 1.363 1.295 1.363.125 0 .293-.042.418-.083l3.133 7.803c-3.55-1.403-6.433-4.293-6.433-8.298 0-2.106 5.806-9.496 7.185-11.271 1.295-1.652 2.798-3.592 4.219-5.657 1.42 2.024 2.924 3.964 4.219 5.657 1.378 1.816 7.184 9.165 7.184 11.27 0 3.964-2.84 6.854-6.349 8.258l3.133-7.68c.083.042.209.042.334.042.71 0 1.295-.62 1.295-1.362 0-.744-.585-1.363-1.295-1.363s-1.295.62-1.295 1.363c0 .454.209.867.585 1.114l-5.64 5.656-1.92-7.679c.5-.165.876-.702.876-1.28 0-.743-.584-1.362-1.294-1.362-.71 0-1.295.62-1.295 1.362 0 .578.376 1.074.877 1.28l-1.88 7.143-5.263-5.202z" fill="#fff"/></svg>
